static/cards/FrenchDeck/cyberwave/card_hearts_A.svg

<svg xmlns="http://www.w3.org/2000/svg" width="822" height="1122" fill="none" viewBox="0 0 822 1122"><rect width="822" height="1122" fill="#1a0033" rx="20"/><g clip-path="url(#a)"><path stroke="#b366ff" stroke-width="20" d="M282.544 451.544c32.725-32.725 85.781-32.725 118.506 0l.013.013 6.934 6.933 7.068-6.797c32.807-31.543 84.979-31.151 117.307 1.177s32.719 84.501 1.176 117.307l-.585.607-118.648 118.65a8.76 8.76 0 0 1-12.388 0L282.544 570.05c-32.725-32.725-32.725-85.781 0-118.506Z"/><path fill="#b366ff" d="M83.77 159q-1.025 0-1.536-.64-.384-.768 0-1.664l35.072-82.56q.512-1.28.896-1.664.512-.512 1.664-.512h2.304q1.152 0 1.536.512.511.384 1.024 1.664l35.072 82.56q.128.256.128.768 0 .64-.512 1.152-.384.384-1.152.384h-2.432q-1.409 0-2.048-.512-.64-.512-1.152-1.664l-9.728-23.04H99.129l-9.728 23.04q-.511 1.152-1.151 1.664T86.2 159zm56.448-31.488-19.2-45.44-19.328 45.44zM120.798 218.497c-10.18-10.18-26.685-10.18-36.865 0s-10.18 26.685 0 36.865l33.179 33.179a5.213 5.213 0 0 0 7.373 0l33.179-33.179-.004-.003c9.814-10.207 9.692-26.437-.365-36.494s-26.287-10.178-36.493-.365zM730.23 959q1.024 0 1.536.64.384.768 0 1.664l-35.072 82.556c-.341.86-.64 1.41-.896 1.67q-.512.51-1.664.51h-2.304q-1.152 0-1.536-.51c-.341-.26-.682-.81-1.024-1.67l-35.072-82.556q-.128-.257-.128-.768 0-.64.512-1.152.384-.384 1.152-.384h2.432q1.409 0 2.048.512.64.512 1.152 1.664l9.728 23.04h43.776l9.728-23.04q.513-1.152 1.152-1.664.64-.512 2.048-.512zm-56.448 31.488 19.2 45.442 19.328-45.442zM693.202 899.503c10.18 10.18 26.685 10.18 36.865 0s10.18-26.685 0-36.865l-33.179-33.179a5.213 5.213 0 0 0-7.373 0l-33.179 33.179.004.003c-9.814 10.207-9.692 26.437.365 36.494s26.287 10.178 36.493.365z"/></g><defs><clipPath id="a"><path fill="#fff" d="M46 48h722v1022H46z"/></clipPath></defs></svg>

<svg width="822" height="1122" viewBox="0 0 822 1122" fill="none" xmlns="http://www.w3.org/2000/svg">
<rect width="822" height="1122" rx="20" fill="#1A0033"/>
<g clip-path="url(#clip0_5_92)">
<path d="M282.544 451.544C315.269 418.819 368.325 418.819 401.05 451.544L401.063 451.557L407.997 458.49L415.065 451.693C447.872 420.15 500.044 420.542 532.372 452.87C564.7 485.198 565.091 537.371 533.548 570.177L532.963 570.784L414.315 689.434C410.894 692.854 405.347 692.854 401.927 689.434L282.544 570.05C249.819 537.325 249.819 484.269 282.544 451.544Z" stroke="#B366FF" stroke-width="20"/>
<path d="M83.7695 159C83.0868 159 82.5748 158.787 82.2335 158.36C81.9775 157.848 81.9775 157.293 82.2335 156.696L117.306 74.136C117.647 73.2827 117.946 72.728 118.202 72.472C118.543 72.1307 119.098 71.96 119.866 71.96H122.17C122.938 71.96 123.45 72.1307 123.706 72.472C124.047 72.728 124.388 73.2827 124.73 74.136L159.802 156.696C159.887 156.867 159.93 157.123 159.93 157.464C159.93 157.891 159.759 158.275 159.418 158.616C159.162 158.872 158.778 159 158.266 159H155.834C154.895 159 154.212 158.829 153.786 158.488C153.359 158.147 152.975 157.592 152.634 156.824L142.906 133.784H99.1295L89.4015 156.824C89.0602 157.592 88.6762 158.147 88.2495 158.488C87.8228 158.829 87.1402 159 86.2015 159H83.7695ZM140.218 127.512L121.018 82.072L101.69 127.512H140.218Z" fill="#B366FF"/>
<path d="M120.798 218.497C110.618 208.317 94.1128 208.317 83.9327 218.497C73.7526 228.677 73.7526 245.182 83.9327 255.362L117.112 288.541C119.148 290.577 122.449 290.577 124.485 288.541L157.664 255.362L157.66 255.359C167.474 245.152 167.352 228.922 157.295 218.865C147.238 208.808 131.008 208.687 120.802 218.5L120.798 218.497Z" fill="#B366FF"/>
<path d="M730.23 959C730.913 959 731.425 959.213 731.766 959.64C732.022 960.152 732.022 960.707 731.766 961.304L696.694 1043.86C696.353 1044.72 696.054 1045.27 695.798 1045.53C695.457 1045.87 694.902 1046.04 694.134 1046.04H691.83C691.062 1046.04 690.55 1045.87 690.294 1045.53C689.953 1045.27 689.612 1044.72 689.27 1043.86L654.198 961.304C654.113 961.133 654.07 960.877 654.07 960.536C654.07 960.109 654.241 959.725 654.582 959.384C654.838 959.128 655.222 959 655.734 959H658.166C659.105 959 659.788 959.171 660.214 959.512C660.641 959.853 661.025 960.408 661.366 961.176L671.094 984.216H714.87L724.598 961.176C724.94 960.408 725.324 959.853 725.75 959.512C726.177 959.171 726.86 959 727.798 959H730.23ZM673.782 990.488L692.982 1035.93L712.31 990.488H673.782Z" fill="#B366FF"/>
<path d="M693.202 899.503C703.382 909.683 719.887 909.683 730.067 899.503C740.247 889.323 740.247 872.818 730.067 862.638L696.888 829.459C694.852 827.423 691.551 827.423 689.515 829.459L656.336 862.638L656.34 862.641C646.526 872.848 646.648 889.078 656.705 899.135C666.762 909.191 682.992 909.313 693.198 899.5L693.202 899.503Z" fill="#B366FF"/>
</g>
<defs>
<clipPath id="clip0_5_92">
<rect width="722" height="1022" fill="white" transform="translate(46 48)"/>
</clipPath>
</defs>
</svg>
